build/images/slider/stem-3.svg

<svg width="427" height="115" viewBox="0 0 427 115" fill="none" xmlns="http://www.w3.org/2000/svg">
<g clip-path="url(#clip0)">
<path opacity="0.32" d="M51.0607 94.881C59.8281 89.0847 59.2417 72.7482 49.7508 58.3923C40.2599 44.0363 25.4587 37.0974 16.6912 42.8936C7.92381 48.6899 8.51028 65.0264 18.0011 79.3823C27.492 93.7383 42.2933 100.677 51.0607 94.881Z" fill="#00A79E"/>
<path d="M22.4004 50.5898L48.6604 98.7498" stroke="#00A79E" stroke-width="2.1109" stroke-miterlimit="10" stroke-linecap="round" stroke-linejoin="round"/>
<path d="M31.5605 67.3906L33.8705 53.1406" stroke="#00A79E" stroke-width="2.1109" stroke-miterlimit="10" stroke-linecap="round" stroke-linejoin="round"/>
<path d="M39.0508 80.9902L41.3608 66.7402" stroke="#00A79E" stroke-width="2.1109" stroke-miterlimit="10" stroke-linecap="round" stroke-linejoin="round"/>
<path d="M42.1811 87.0194L28.8711 81.4395" stroke="#00A79E" stroke-width="2.1109" stroke-miterlimit="10" stroke-linecap="round" stroke-linejoin="round"/>
<path d="M33.8705 72.3302L20.5605 66.7402" stroke="#00A79E" stroke-width="2.1109" stroke-miterlimit="10" stroke-linecap="round" stroke-linejoin="round"/>
<path opacity="0.32" d="M421.38 62.4365C432.172 36.582 426.275 9.50915 408.208 1.96751C390.141 -5.57412 366.746 9.27134 355.953 35.1258C345.161 60.9803 351.058 88.0532 369.125 95.5948C387.192 103.136 410.588 88.2909 421.38 62.4365Z" fill="#00A79E"/>
<path d="M399.791 15.5098L365.451 98.5298" stroke="#00A79E" stroke-width="3.0285" stroke-miterlimit="10" stroke-linecap="round" stroke-linejoin="round"/>
<path d="M387.82 44.461L410.9 31.541" stroke="#00A79E" stroke-width="3.0285" stroke-miterlimit="10" stroke-linecap="round" stroke-linejoin="round"/>
<path d="M378.211 67.9901L401.301 55.0801" stroke="#00A79E" stroke-width="3.0285" stroke-miterlimit="10" stroke-linecap="round" stroke-linejoin="round"/>
<path d="M373.711 78.2105L364.551 56.7305" stroke="#00A79E" stroke-width="3.0285" stroke-miterlimit="10" stroke-linecap="round" stroke-linejoin="round"/>
<path d="M383.811 52.5405L374.641 31.0605" stroke="#00A79E" stroke-width="3.0285" stroke-miterlimit="10" stroke-linecap="round" stroke-linejoin="round"/>
<path d="M1.5 100.27H420.7" stroke="#00A79E" stroke-width="3" stroke-miterlimit="10" stroke-linecap="round" stroke-linejoin="round"/>
<path d="M44.2793 113.32H244.099" stroke="#00A79E" stroke-width="3" stroke-miterlimit="10" stroke-linecap="round" stroke-linejoin="round"/>
<path d="M269.471 113.32H336.781" stroke="#00A79E" stroke-width="3" stroke-miterlimit="10" stroke-linecap="round" stroke-linejoin="round"/>
<path d="M305.07 90.6797V99.2597" stroke="#00A79E" stroke-width="3" stroke-miterlimit="10" stroke-linecap="round" stroke-linejoin="round"/>
<path d="M36.2402 90.6797V99.2597" stroke="#00A79E" stroke-width="3" stroke-miterlimit="10" stroke-linecap="round" stroke-linejoin="round"/>
<path d="M8.18945 90.6797V99.2597" stroke="#00A79E" stroke-width="3" stroke-miterlimit="10" stroke-linecap="round" stroke-linejoin="round"/>
<path d="M321.029 94.9688V99.2588" stroke="#00A79E" stroke-width="3" stroke-miterlimit="10" stroke-linecap="round" stroke-linejoin="round"/>
<path d="M96.6699 100.031V82.8008" stroke="#00A79E" stroke-width="3" stroke-miterlimit="10" stroke-linecap="round" stroke-linejoin="round"/>
<path d="M96.8693 83.0212C96.8693 83.0212 93.9993 68.6012 110.479 67.9512C110.479 67.9512 111.399 82.7112 96.8693 83.0212Z" stroke="#00A79E" stroke-width="3" stroke-miterlimit="10" stroke-linecap="round" stroke-linejoin="round"/>
<path d="M78.6699 79.5103C78.6699 79.5103 92.2499 73.8703 96.1099 89.9103C96.1099 89.9103 81.8199 93.7003 78.6699 79.5103Z" stroke="#00A79E" stroke-width="3" stroke-miterlimit="10" stroke-linecap="round" stroke-linejoin="round"/>
<path d="M196.93 99.1912V55.9512" stroke="#00A79E" stroke-width="3" stroke-miterlimit="10" stroke-linecap="round" stroke-linejoin="round"/>
<path d="M201.499 46.581C201.499 51.991 196.929 56.371 196.929 56.371C196.929 56.371 192.359 51.991 192.359 46.581C192.359 41.171 196.929 36.791 196.929 36.791C196.929 36.791 201.499 41.181 201.499 46.581Z" stroke="#00A79E" stroke-width="3" stroke-miterlimit="10" stroke-linecap="round" stroke-linejoin="round"/>
<path d="M190.83 57.2204C195.28 60.3004 196.28 66.5504 196.28 66.5504C196.28 66.5504 190.08 67.8104 185.63 64.7404C181.18 61.6604 180.18 55.4104 180.18 55.4104C180.18 55.4104 186.39 54.1504 190.83 57.2204Z" stroke="#00A79E" stroke-width="3" stroke-miterlimit="10" stroke-linecap="round" stroke-linejoin="round"/>
<path d="M190.83 71.96C195.28 75.04 196.28 81.29 196.28 81.29C196.28 81.29 190.08 82.55 185.63 79.48C181.18 76.4 180.18 70.15 180.18 70.15C180.18 70.15 186.39 68.88 190.83 71.96Z" stroke="#00A79E" stroke-width="3" stroke-miterlimit="10" stroke-linecap="round" stroke-linejoin="round"/>
<path d="M202.389 57.2204C197.939 60.3004 196.939 66.5504 196.939 66.5504C196.939 66.5504 203.139 67.8104 207.589 64.7404C212.039 61.6604 213.039 55.4104 213.039 55.4104C213.039 55.4104 206.829 54.1504 202.389 57.2204Z" stroke="#00A79E" stroke-width="3" stroke-miterlimit="10" stroke-linecap="round" stroke-linejoin="round"/>
<path d="M202.389 71.96C197.939 75.04 196.939 81.29 196.939 81.29C196.939 81.29 203.139 82.55 207.589 79.48C212.039 76.4 213.039 70.15 213.039 70.15C213.039 70.15 206.829 68.88 202.389 71.96Z" stroke="#00A79E" stroke-width="3" stroke-miterlimit="10" stroke-linecap="round" stroke-linejoin="round"/>
</g>
<defs>
<clipPath id="clip0">
<rect width="426.78" height="114.82" fill="white"/>
</clipPath>
</defs>
</svg>

<svg width="427" height="115" viewBox="0 0 427 115" fill="none" xmlns="http://www.w3.org/2000/svg"><g clip-path="url(#clip0)"><path opacity=".32" d="M51.06 94.881c8.768-5.796 8.182-22.133-1.31-36.489-9.49-14.356-24.291-21.295-33.059-15.498-8.767 5.796-8.18 22.132 1.31 36.488 9.491 14.356 24.292 21.295 33.06 15.499z" fill="#00A79E"/><path d="M22.4 50.59l26.26 48.16m-17.1-31.36l2.31-14.25m5.18 27.85l2.31-14.25m.821 20.28l-13.31-5.58m4.999-9.11l-13.31-5.59" stroke="#00A79E" stroke-width="2.111" stroke-miterlimit="10" stroke-linecap="round" stroke-linejoin="round"/><path opacity=".32" d="M421.38 62.437c10.792-25.855 4.895-52.928-13.172-60.47-18.067-7.541-41.462 7.304-52.255 33.159-10.792 25.854-4.895 52.927 13.172 60.469 18.067 7.541 41.463-7.304 52.255-33.158z" fill="#00A79E"/><path d="M399.791 15.51l-34.34 83.02m22.369-54.069l23.08-12.92M378.211 67.99l23.09-12.91m-27.59 23.13l-9.16-21.48m19.26-4.19l-9.17-21.48" stroke="#00A79E" stroke-width="3.029" stroke-miterlimit="10" stroke-linecap="round" stroke-linejoin="round"/><path d="M1.5 100.27h419.2M44.28 113.32h199.819m25.372 0h67.31M305.07 90.68v8.58M36.24 90.68v8.58M8.19 90.68v8.58m312.839-4.291v4.29m-224.359.772v-17.23m.2.22s-2.87-14.42 13.609-15.07c0 0 .92 14.76-13.61 15.07zm-18.2-3.511s13.58-5.64 17.44 10.4c0 0-14.29 3.79-17.44-10.4zm118.26 19.681v-43.24m4.569-9.37c0 5.41-4.57 9.79-4.57 9.79s-4.57-4.38-4.57-9.79c0-5.41 4.57-9.79 4.57-9.79s4.57 4.39 4.57 9.79zM190.83 57.22c4.45 3.08 5.45 9.33 5.45 9.33s-6.2 1.26-10.65-1.81c-4.45-3.08-5.45-9.33-5.45-9.33s6.21-1.26 10.65 1.81zm0 14.74c4.45 3.08 5.45 9.33 5.45 9.33s-6.2 1.26-10.65-1.81c-4.45-3.08-5.45-9.33-5.45-9.33s6.21-1.27 10.65 1.81zm11.559-14.74c-4.45 3.08-5.45 9.33-5.45 9.33s6.2 1.26 10.65-1.81c4.45-3.08 5.45-9.33 5.45-9.33s-6.21-1.26-10.65 1.81zm0 14.74c-4.45 3.08-5.45 9.33-5.45 9.33s6.2 1.26 10.65-1.81c4.45-3.08 5.45-9.33 5.45-9.33s-6.21-1.27-10.65 1.81z" stroke="#00A79E" stroke-width="3" stroke-miterlimit="10" stroke-linecap="round" stroke-linejoin="round"/></g><defs><clipPath id="clip0"><path fill="#fff" d="M0 0h426.78v114.82H0z"/></clipPath></defs></svg>
